X: 4
T: Sweeney's
R: polka
M: 2/4
L: 1/8
K: Dmaj
|:AB/A/ FA|DA FA|B/c/d/B/ AF|ED B,2|
AB/A/ FA|DA FA|B/c/d/B/ AF|ED D2:|
|:FA d>B|AF ED|FA d>B|AF E2|
FA d>B|AF ED|AB/A/ FE|ED D2:|


Tune 1549	Setting 14946

